dist/img/linkedin-md.svg

<svg width="15" height="14" viewBox="0 0 15 14" fill="none" xmlns="http://www.w3.org/2000/svg">
<path d="M3.78196 4.86377H1.07356C0.953356 4.86377 0.855957 4.96121 0.855957 5.08137V13.7823C0.855957 13.9025 0.953356 13.9999 1.07356 13.9999H3.78196C3.90217 13.9999 3.99957 13.9025 3.99957 13.7823V5.08137C3.99957 4.96121 3.90217 4.86377 3.78196 4.86377Z" fill="#707070"/>
<path d="M2.42881 0.538574C1.44333 0.538574 0.641602 1.33944 0.641602 2.32382C0.641602 3.30865 1.44333 4.10981 2.42881 4.10981C3.4135 4.10981 4.21458 3.3086 4.21458 2.32382C4.21463 1.33944 3.4135 0.538574 2.42881 0.538574Z" fill="#707070"/>
<path d="M10.6713 4.64795C9.58353 4.64795 8.7794 5.11558 8.29167 5.64692V5.0818C8.29167 4.96164 8.19427 4.8642 8.07407 4.8642H5.4803C5.36009 4.8642 5.2627 4.96164 5.2627 5.0818V13.7827C5.2627 13.903 5.36009 14.0003 5.4803 14.0003H8.18278C8.30299 14.0003 8.40038 13.903 8.40038 13.7827V9.4778C8.40038 8.02713 8.79442 7.46198 9.80566 7.46198C10.907 7.46198 10.9945 8.36799 10.9945 9.55244V13.7828C10.9945 13.903 11.0919 14.0004 11.2121 14.0004H13.9156C14.0358 14.0004 14.1332 13.903 14.1332 13.7828V9.01017C14.1332 6.85308 13.7219 4.64795 10.6713 4.64795Z" fill="#707070"/>
</svg>

<svg width="15" height="14" fill="none" xmlns="http://www.w3.org/2000/svg"><path d="M3.782 4.864H1.074a.218.218 0 00-.218.217v8.701c0 .12.097.218.218.218h2.708c.12 0 .218-.098.218-.218v-8.7a.218.218 0 00-.218-.218zM2.429.539c-.986 0-1.787.8-1.787 1.785 0 .985.801 1.786 1.787 1.786.985 0 1.786-.801 1.786-1.786S3.414.539 2.429.539zm8.242 4.109c-1.087 0-1.892.468-2.38.999v-.565a.218.218 0 00-.217-.218H5.48a.218.218 0 00-.217.218v8.7c0 .121.097.218.217.218h2.703c.12 0 .217-.097.217-.217V9.478c0-1.45.394-2.016 1.406-2.016 1.101 0 1.189.906 1.189 2.09v4.23c0 .121.097.218.217.218h2.704c.12 0 .217-.097.217-.217V9.01c0-2.157-.411-4.362-3.462-4.362z" fill="#707070"/></svg>
